X:1
T:What God Ordains Is Always Right
T:Tune: attr. Severus Gastorius, c. 1675 Text under copyright; for copyrighted material see Psalter Hymnal 451
T:87 87 888 WAS GOTT TUT www.hymnary.org/text/what_god_ordains_is_always_right
T:What God Ordains Is Always Right
T:This tune is in the public domain. You may freely use this score for personal and congregational worship. If you reproduce the score, please credit Hymnary.org as the source. 
T:This tune is in the public domain. You may freely use this score for personal and congregational worship. If you reproduce the score, please credit Hymnary.org as the source. 
Z:This tune is in the public domain. You may freely use this score for personal and congregational worship. If you reproduce the score, please credit Hymnary.org as the source.
%%score ( 1 2 ) ( 3 4 )
L:1/8
M:4/4
K:F
V:1 treble nm="SOPRANO ALTO" snm="S. A."
V:2 treble 
V:3 bass nm="TENOR BASS" snm="T. B."
V:4 bass 
V:1
 C2 | F2 G2 A2 B2 | c3 B A2 d2 | c2 B2 A2 BA | G4 F2 C2 | F2 G2 A2 B2 | c3 B A2 d2 | c2 B2 A2 BA | %8
 G4 F2 c2 | d2 d2 G2 G2 | c2 c2 F2 A2 | G2 F2 |1 E2 FE | D2 D2 C2 c2 | B2 A2 G2 A2 | G2 G2 F4 |] %16
V:2
 C2 | D2 E2 F2 F2 | E2 G2 F2 F2 | F2 DE F2 F2 | (F2 E2) C2 C2 | D2 E2 F2 F2 | E2 G2 F2 F2 | %7
 F2 DE F2 F2 | (F2 E2) C2 F2 | F2 F2 E2 E2 | E2 E2 D2 C2 | C2 =B,2 |1 C2 C2 | C2 =B,2 C2 F2 | %14
 F2 F2 E2 F2 | F2 E2 C4 |] %16
V:3
 A,2 | A,2 C2 C2 B,2 | G,2 C2 C2 B,2 | A,2 B,2 C2 D2 | (C3 B,) A,2 A,2 | A,2 C2 C2 B,2 | %6
 G,2 C2 C2 B,2 | A,2 B,2 C2 D2 | (C3 B,) A,2 A,2 | B,2 G,2 G,2 G,2 | A,2 A,2 A,2 F,2 | E,2 F,2 |1 %12
 G,2 F,G, | A,2 G,F, E,2 C2 | D2 C2 C2 C2 | D2 CB, A,4 |] %16
V:4
 F,2 | D,2 C,2 F,2 D,2 | C,2 E,2 F,2 B,,2 | F,2 G,2 F,2 B,,2 | C,4 F,2 F,2 | D,2 C,2 F,2 D,2 | %6
 C,2 E,2 F,2 B,,2 | F,2 G,2 F,2 B,,2 | C,4 F,2 F,2 | B,,2 =B,,2 C,2 _B,,2 | A,,2 C,2 D,2 A,,2 | %11
 C,2 D,2 |1 C,2 A,,G,, | F,,2 G,,2 C,2 A,,2 | B,,2 F,2 C,B,, A,,2 | B,,2 C,2 F,4 |] %16

